dist/img/about/about_card_4.svg

<svg width="32" height="32" viewBox="0 0 32 32" fill="none" xmlns="http://www.w3.org/2000/svg">
<path d="M16 10.6665V17.3332" stroke="#E7BDA9" stroke-width="1.5" stroke-linecap="round" stroke-linejoin="round"/>
<path d="M16 29.3333C9.56004 29.3333 4.33337 24.1067 4.33337 17.6667C4.33337 11.2267 9.56004 6 16 6C22.44 6 27.6667 11.2267 27.6667 17.6667" stroke="#E7BDA9" stroke-width="1.5" stroke-linecap="round" stroke-linejoin="round"/>
<path d="M12 2.6665H20" stroke="#E7BDA9" stroke-width="1.5" stroke-miterlimit="10" stroke-linecap="round" stroke-linejoin="round"/>
<path d="M19.8666 24.6668V23.1202C19.8666 21.2135 21.2266 20.4269 22.8799 21.3869L24.2132 22.1602L25.5466 22.9335C27.1999 23.8935 27.1999 25.4535 25.5466 26.4135L24.2132 27.1868L22.8799 27.9602C21.2266 28.9202 19.8666 28.1335 19.8666 26.2268V24.6668Z" stroke="white" stroke-width="1.5" stroke-miterlimit="10" stroke-linecap="round" stroke-linejoin="round"/>
</svg>

<svg width="32" height="32" viewBox="0 0 32 32" fill="none" xmlns="http://www.w3.org/2000/svg"><path d="M16 10.666v6.667m0 12c-6.44 0-11.667-5.226-11.667-11.666S9.56 6 16 6c6.44 0 11.667 5.227 11.667 11.667" stroke="#E7BDA9" stroke-width="1.5" stroke-linecap="round" stroke-linejoin="round"/><path d="M12 2.667h8" stroke="#E7BDA9" stroke-width="1.5" stroke-miterlimit="10" stroke-linecap="round" stroke-linejoin="round"/><path d="M19.867 24.667V23.12c0-1.907 1.36-2.693 3.013-1.733l1.333.773 1.334.773c1.653.96 1.653 2.52 0 3.48l-1.334.774-1.333.773c-1.653.96-3.013.174-3.013-1.733v-1.56z" stroke="#fff" stroke-width="1.5" stroke-miterlimit="10" stroke-linecap="round" stroke-linejoin="round"/></svg>7.1999 25.4535 25.5466 26.4135L24.2132 27.1868L22.8799 27.9602C21.2266 28.9202 19.8666 28.1335 19.8666 26.2268V24.6668Z" stroke="white" stroke-width="1.5" stroke-miterlimit="10" stroke-linecap="round" stroke-linejoin="round"/>
</svg>
